<?xml version="1.0" encoding="UTF-8"?>
<map version="1.10"
     tilewidth="8"
     tileheight="8"
     width="160"
     height="28">
  <tileset firstgid="1"
            tilewidth="8"
            tileheight="8"
            tilecount="844"
            columns="30">
    <image source="BG_tileset.png"
           width="240"
           height="232"/>
  </tileset>
  <layer name="camada" width="160"
          height="28">
    <data encoding="csv">
1,1,1,1,1,1,1,1,1,1,1,1,1,1,1,1,1,1,1,1,1,1,1,1,1,1,2,2,2,2,2,2,3,1,1,1,1,1,1,1,1,1,1,1,1,1,1,1,1,1,1,1,1,1,1,1,1,1,4,2,2,2,2,2,5,1,1,1,1,1,1,1,1,1,1,1,1,1,1,1,1,1,1,1,1,1,1,1,1,1,6,2,2,2,2,2,7,8,8,8,9,10,8,8,8,8,8,8,8,11,12,8,8,8,8,8,8,8,13,14,8,8,8,8,8,8,15,16,17,8,8,8,11,12,8,8,8,8,8,8,8,15,18,8,8,8,8,8,8,8,19,20,8,8,8,8,8,8,21,22
1,1,1,1,1,1,1,1,1,1,1,1,1,1,1,1,1,1,1,1,1,1,1,1,1,1,2,2,2,2,2,2,3,1,1,1,1,1,1,1,1,1,1,1,1,1,1,1,1,1,1,1,1,1,1,1,1,1,4,2,2,2,2,2,5,1,1,1,1,1,1,1,1,1,1,1,1,1,1,1,1,1,1,1,1,1,1,1,1,1,6,2,2,2,2,2,7,8,8,8,9,10,8,8,8,8,8,8,8,11,12,8,8,8,8,8,8,8,13,14,8,8,8,8,8,8,15,16,17,8,8,8,11,12,8,8,8,8,8,8,8,15,18,8,8,8,8,8,8,8,19,20,8,8,8,8,8,8,21,22
1,1,1,1,1,1,1,1,1,1,1,1,1,1,1,1,1,1,1,1,1,1,1,1,1,1,2,2,2,2,2,2,3,1,1,1,1,1,1,1,1,1,1,1,1,1,1,1,1,1,1,1,1,1,1,1,1,1,4,2,2,2,2,2,5,1,1,1,1,1,1,1,1,1,1,1,1,1,1,1,1,1,1,1,1,1,1,1,1,1,6,2,2,2,2,2,23,24,24,24,25,26,24,24,27,28,24,24,24,29,30,24,24,31,32,24,24,24,33,34,35,35,35,35,35,35,36,37,38,39,39,39,40,41,39,39,39,42,43,44,39,45,46,39,39,39,39,39,39,39,47,48,49,49,49,49,49,49,50,51
1,1,1,1,1,1,1,1,1,1,1,1,1,1,1,1,1,1,1,1,1,1,1,1,1,1,2,2,2,2,2,2,3,1,1,1,1,1,1,1,1,1,1,1,1,1,1,1,1,1,1,1,1,1,1,1,1,1,4,2,2,2,2,2,5,1,1,1,1,1,1,1,1,1,1,1,1,1,1,1,1,1,1,1,1,1,1,1,1,1,6,2,2,2,2,2,52,53,53,53,54,55,56,57,58,59,60,53,61,62,53,53,53,63,64,53,53,53,53,65,66,66,67,68,66,66,66,66,69,70,66,71,72,66,66,66,66,73,74,75,66,66,66,66,66,76,77,66,66,66,66,78,79,79,80,81,79,79,79,79
1,1,1,1,1,1,1,1,1,1,1,1,1,1,1,1,1,1,1,1,1,1,1,1,1,1,2,2,2,2,2,2,3,1,1,1,1,1,1,1,1,1,1,1,1,1,1,1,1,1,1,1,1,1,1,1,1,1,4,2,2,2,2,2,5,1,1,1,1,1,1,1,1,1,1,1,1,1,1,1,1,1,1,1,1,1,1,1,1,1,6,2,2,2,2,2,52,8,8,8,82,83,84,85,86,59,87,88,89,90,91,8,8,21,92,93,94,95,96,97,98,99,100,101,8,8,8,8,69,87,8,102,103,104,105,8,8,106,107,108,8,8,8,8,8,13,109,110,8,8,8,8,8,8,9,10,8,8,8,8
1,1,1,1,1,1,1,1,1,1,1,1,1,1,1,1,1,1,1,1,1,1,1,1,1,1,2,2,2,2,2,2,3,1,1,1,1,1,1,1,1,1,1,1,1,1,1,1,1,1,1,1,1,1,1,1,1,1,4,2,2,2,2,2,5,1,1,1,1,1,1,1,1,1,1,1,1,1,1,1,1,1,1,1,1,1,1,1,1,1,6,2,2,2,2,2,52,8,8,8,111,8,8,112,113,114,87,115,116,117,118,119,8,21,120,121,122,123,124,125,126,127,128,129,8,8,8,8,69,87,8,130,131,132,133,134,8,135,136,8,8,137,138,139,140,13,141,142,8,8,143,144,8,8,9,10,8,8,8,8
1,1,1,1,1,1,1,1,1,1,1,1,1,1,1,1,1,1,1,1,1,1,1,1,1,1,2,2,2,2,2,2,3,1,1,1,1,1,1,1,1,1,1,1,1,1,1,1,1,1,1,1,1,1,1,1,1,1,4,2,2,2,2,2,5,1,1,1,1,1,1,1,1,1,1,1,1,1,1,1,1,1,1,1,1,1,1,1,1,1,6,2,2,2,2,2,52,8,8,145,146,147,148,149,150,151,152,153,154,155,156,157,8,158,159,160,161,162,163,164,165,166,167,168,8,8,8,8,69,87,8,169,170,171,172,173,8,174,175,8,8,176,177,178,179,13,180,181,182,183,184,185,8,8,9,10,8,8,8,8
1,1,1,1,1,1,1,1,1,1,1,1,1,1,1,1,1,1,1,1,1,1,1,1,1,1,2,2,2,2,2,2,3,1,1,1,1,1,1,1,1,1,1,1,1,1,1,1,1,1,1,1,1,1,1,1,1,1,4,2,2,2,2,2,5,1,1,1,1,1,1,1,1,1,1,1,1,1,1,1,1,1,1,1,1,1,1,1,1,1,6,2,2,2,2,2,186,187,188,189,190,191,192,193,194,195,196,197,198,199,200,201,202,203,204,205,206,207,208,209,210,211,212,213,189,187,187,187,214,215,216,217,218,219,220,221,216,222,223,216,216,224,225,226,227,228,229,230,231,232,216,216,216,216,233,234,216,216,216,216
1,1,1,1,1,1,1,1,1,1,1,1,1,1,1,1,1,1,1,1,1,1,1,1,1,1,2,2,2,2,2,2,3,1,1,1,1,1,1,1,1,1,1,1,1,1,1,1,1,1,1,1,1,1,1,1,1,1,4,2,2,2,2,2,5,1,1,1,1,1,1,1,1,1,1,1,1,1,1,1,1,1,1,1,1,1,1,1,1,1,6,2,2,2,2,2,235,236,237,238,239,240,241,242,243,244,245,246,79,247,248,249,250,251,252,253,254,255,256,257,258,259,260,261,262,263,264,265,266,267,268,269,270,271,268,268,268,272,273,268,274,275,276,277,278,268,279,280,281,282,268,283,284,268,285,268,268,268,286,287
1,1,1,1,1,1,1,1,1,1,1,1,1,1,1,1,1,1,1,1,1,1,1,1,1,1,2,2,2,2,2,2,3,1,1,1,1,1,1,1,1,1,1,1,1,1,1,1,1,1,1,1,1,1,1,1,1,1,4,2,2,2,2,2,5,1,1,1,1,288,79,79,79,79,79,79,289,290,1,1,1,1,1,1,1,291,292,79,79,79,293,2,2,2,2,2,52,87,8,8,294,295,296,297,298,299,300,301,302,303,304,305,306,307,308,309,310,8,311,312,313,314,8,315,8,8,21,316,317,318,8,319,320,20,8,8,8,321,322,8,323,324,325,326,327,8,328,329,330,331,332,69,87,8,8,8,8,8,13,14
1,1,1,1,1,1,1,1,1,1,1,1,1,1,1,1,1,1,1,1,1,1,1,1,1,1,2,2,2,2,2,2,3,1,1,1,1,1,1,1,1,1,1,1,1,1,1,1,1,1,1,1,1,1,1,1,1,1,4,2,2,2,2,2,5,1,1,1,1,333,8,8,8,8,8,8,8,334,1,1,1,1,1,1,1,335,318,8,8,8,336,2,2,2,2,2,52,337,338,8,339,340,8,341,8,342,343,344,345,346,347,348,349,350,351,352,353,8,354,355,8,356,306,357,8,8,21,316,317,318,8,358,359,20,8,8,8,360,361,8,362,363,316,364,365,8,366,367,8,368,369,370,87,8,8,8,8,8,13,14
1,1,1,1,1,1,1,1,1,1,1,1,1,1,1,1,1,1,1,1,1,1,1,1,1,1,2,2,2,2,2,2,3,1,1,1,1,1,1,1,1,1,1,1,1,1,1,1,1,1,1,1,1,1,1,1,1,1,4,2,2,2,2,2,5,1,1,1,1,333,8,8,8,8,8,8,8,334,1,1,1,1,1,1,1,335,318,8,8,8,336,2,2,2,2,2,52,371,349,372,373,14,374,375,376,377,378,379,380,381,382,383,384,338,385,386,387,388,389,20,390,8,391,392,393,8,21,316,317,318,8,394,395,20,8,8,8,396,397,8,8,21,316,8,8,8,8,8,8,8,8,69,87,8,8,8,8,8,13,14
1,1,1,1,1,1,1,1,1,1,1,1,1,1,1,1,1,1,1,1,1,1,1,1,1,1,2,2,2,2,2,2,3,1,1,1,1,1,1,1,1,1,1,1,1,1,1,1,1,1,1,1,1,1,1,1,1,1,4,2,2,2,2,2,5,1,1,1,1,333,8,8,8,8,8,8,8,334,1,1,1,1,1,1,1,335,318,8,8,8,336,2,2,2,2,2,52,398,399,8,400,401,402,403,404,405,406,407,408,409,410,411,350,412,413,414,415,8,416,417,418,419,420,421,8,8,21,316,317,318,8,8,19,20,8,8,8,8,8,8,8,21,316,8,8,8,8,8,8,8,8,69,87,8,8,8,8,8,13,14
1,1,1,1,1,1,1,1,1,1,1,1,1,1,1,1,1,1,1,1,1,1,1,1,1,1,2,2,2,2,2,2,3,1,1,1,1,1,1,1,1,1,1,1,1,1,1,1,1,1,1,1,1,1,1,1,1,1,4,2,2,2,2,2,5,1,1,1,1,422,187,187,187,187,187,187,187,334,1,1,1,1,1,1,1,423,424,187,187,187,425,2,2,2,2,2,426,427,428,39,429,430,431,432,433,434,435,436,437,438,439,440,441,442,443,444,445,446,447,448,449,450,451,452,39,39,453,454,455,424,187,187,456,457,187,187,187,187,187,187,187,458,459,187,187,187,187,187,187,187,187,460,461,187,187,187,187,187,462,463
1,1,1,1,1,1,1,1,1,1,1,1,1,1,1,1,1,1,1,1,1,1,1,1,1,1,2,2,2,2,2,2,3,1,1,1,1,1,1,1,1,464,465,465,465,465,465,465,465,466,1,1,1,1,1,1,1,1,4,2,2,2,2,2,467,79,79,79,79,79,79,79,79,468,236,79,79,79,79,79,79,469,470,79,79,79,79,79,79,471,472,2,2,2,2,2,473,66,474,475,476,477,478,479,480,481,482,483,484,485,486,487,488,489,490,491,66,492,493,494,495,66,496,70,66,66,66,66,497,79,79,79,79,79,79,79,79,498,499,79,79,79,79,500,79,501,502,503,79,504,505,79,79,79,506,292,79,79,79,79
1,1,1,1,1,1,1,1,1,1,1,1,1,1,1,1,1,1,1,1,1,1,1,1,1,1,2,2,2,2,2,2,3,1,1,1,1,1,1,1,1,507,508,508,508,508,508,508,508,509,1,1,1,1,1,1,1,1,4,2,2,2,2,2,510,8,8,8,8,8,8,8,8,69,87,8,8,8,8,8,8,511,12,8,8,8,8,8,8,13,512,2,2,2,2,2,513,8,8,514,515,516,517,518,519,520,521,522,523,524,525,526,527,528,529,530,531,532,533,534,535,536,69,87,8,8,537,8,69,8,8,8,8,8,8,8,8,538,539,8,540,541,542,543,8,21,544,545,8,546,547,8,8,8,548,318,8,8,8,8
1,1,1,1,1,1,1,1,1,1,1,1,1,1,1,1,1,1,1,1,1,1,1,1,1,1,2,2,2,2,2,2,3,1,1,1,1,1,1,1,1,507,8,8,8,8,8,8,8,511,1,1,1,1,1,1,1,1,4,2,2,2,2,2,549,8,8,8,8,8,8,8,8,69,87,8,8,8,8,8,8,511,12,8,8,8,8,8,8,13,512,2,2,2,2,2,550,8,8,551,552,8,553,554,555,556,557,558,559,560,561,562,563,564,565,566,567,568,569,570,571,572,69,87,8,8,8,8,69,8,8,8,8,8,8,8,8,11,573,574,575,576,577,578,8,579,580,581,582,583,584,8,8,8,585,586,8,8,8,8
1,1,1,1,1,1,1,1,1,1,1,1,1,1,1,1,1,1,1,1,1,1,1,1,1,1,2,2,2,2,2,2,3,1,1,1,1,1,1,1,1,507,8,8,8,8,8,8,8,511,1,1,1,1,1,1,1,1,4,2,2,2,2,2,587,8,8,8,8,8,8,8,8,69,87,8,8,8,8,8,8,511,12,8,8,8,8,8,8,13,512,2,2,2,2,2,588,8,8,589,590,591,592,593,594,595,596,597,598,599,600,8,601,602,603,604,605,606,607,608,609,610,611,87,8,8,8,8,69,8,8,8,8,8,8,8,8,11,612,613,614,615,616,617,8,618,619,620,621,622,623,8,8,8,624,625,8,8,8,8
1,1,1,1,1,1,1,1,1,1,1,1,1,1,1,1,1,1,1,1,1,1,1,1,1,1,2,2,2,2,2,2,3,1,1,1,1,1,1,1,1,626,187,187,187,187,187,187,187,627,1,1,1,1,1,1,1,1,4,2,2,2,2,2,628,187,187,187,187,187,187,187,187,460,461,187,187,187,187,187,187,627,629,187,187,187,187,187,187,462,512,2,2,2,2,2,630,39,39,631,632,633,634,635,636,637,638,39,639,640,641,39,642,643,644,645,646,647,648,39,649,650,651,652,653,39,654,39,655,187,187,187,187,187,187,187,187,656,657,658,659,660,661,662,663,664,665,666,667,668,669,670,671,672,673,674,675,676,187,187
1,1,1,1,1,1,1,1,1,1,1,1,1,1,1,1,1,1,1,1,1,1,1,1,1,1,2,2,2,2,2,2,3,1,1,1,1,677,79,79,79,79,79,79,79,678,470,79,79,79,79,79,79,79,679,1,1,1,4,2,2,2,2,2,680,681,681,681,682,683,79,79,79,79,79,79,79,679,684,79,79,79,79,79,79,79,264,265,79,79,293,2,2,2,2,2,473,66,66,66,685,686,687,688,689,690,66,691,692,76,77,693,66,66,694,695,696,697,698,20,66,699,66,700,66,66,701,702,703,79,79,79,79,704,292,79,79,79,79,79,79,705,706,79,79,79,79,79,707,708,709,710,711,712,713,714,715,716,264,265
1,1,1,1,1,1,1,1,1,1,1,1,1,1,1,1,1,1,1,1,1,1,1,1,1,1,2,2,2,2,2,2,3,1,1,1,1,717,8,8,8,8,8,8,8,11,12,8,8,8,8,8,8,8,15,1,1,1,4,2,2,2,2,2,510,8,8,8,13,14,8,8,8,8,8,8,8,15,18,8,8,8,8,8,8,8,21,316,8,8,336,2,2,2,2,2,513,8,8,8,8,718,719,8,8,309,8,720,721,722,723,8,724,725,726,8,727,728,19,20,8,729,730,8,8,8,15,18,317,8,8,8,8,731,318,8,8,732,733,734,735,736,737,738,739,740,741,742,743,744,745,69,87,8,8,8,8,8,21,316
1,1,1,1,1,1,1,1,1,1,1,1,1,1,1,1,1,1,1,1,1,1,1,1,1,1,2,2,2,2,2,2,3,1,1,1,1,717,8,8,8,8,8,8,8,11,12,8,8,8,8,8,8,8,15,1,1,1,4,2,2,2,2,2,510,8,8,8,13,14,8,8,8,8,8,8,8,15,18,8,8,8,8,8,8,8,21,316,8,8,336,2,2,2,2,2,513,8,8,8,531,746,747,8,8,8,390,8,748,749,14,8,750,8,8,751,8,752,19,312,8,753,8,8,8,8,15,18,317,8,8,8,8,731,318,8,8,8,754,755,756,757,758,759,760,761,762,763,764,765,766,69,87,8,8,8,8,8,21,316
1,1,1,1,1,1,1,1,1,1,1,1,1,1,1,1,1,1,1,1,1,1,1,1,1,1,2,2,2,2,2,2,3,1,1,1,1,717,8,8,8,8,8,8,8,11,12,8,8,8,8,8,8,8,15,1,1,1,4,2,2,2,2,2,510,8,8,8,13,14,8,8,8,8,8,8,8,15,18,8,8,8,8,8,8,8,21,316,8,8,336,2,2,2,2,2,513,8,8,767,8,768,769,770,8,390,771,8,772,773,774,725,8,775,8,8,751,8,19,776,777,8,349,8,777,8,15,18,317,8,8,8,8,731,318,8,8,8,8,8,8,19,20,8,8,8,8,8,778,779,780,69,87,8,8,8,8,8,21,316
1,1,1,1,1,1,1,1,1,781,465,465,465,465,465,465,465,782,1,1,1,1,1,1,1,1,2,2,2,2,2,2,783,465,465,465,465,784,785,785,786,787,785,785,785,788,789,785,785,790,785,785,785,785,791,465,465,792,793,2,2,2,2,2,794,785,785,785,795,796,785,785,785,797,785,785,785,791,798,785,785,799,785,785,785,785,800,801,785,802,803,2,2,2,2,2,804,805,805,805,805,806,805,805,805,805,805,805,807,805,808,805,805,805,805,805,805,805,805,809,805,805,805,805,805,805,805,810,811,812,812,812,812,813,814,812,812,812,812,812,812,815,816,812,812,812,812,812,812,812,812,817,818,812,812,812,812,812,819,820
1,1,1,1,1,1,1,1,1,821,508,508,508,508,508,508,508,822,1,1,1,1,1,1,1,1,2,2,2,2,2,2,823,508,508,508,508,508,508,508,824,20,508,508,508,508,508,508,508,825,826,508,508,508,508,508,508,827,828,2,2,2,2,2,829,508,508,508,508,508,508,508,508,69,830,508,508,508,508,508,508,831,832,508,508,508,508,508,508,833,512,2,2,2,2,2,834,835,835,835,835,835,835,835,835,835,835,835,835,835,835,835,835,835,835,835,835,835,835,835,835,835,835,835,835,835,835,835,836,835,835,835,835,835,835,835,835,835,835,835,835,835,835,835,835,835,835,835,835,835,835,835,835,835,835,835,835,835,835,835
1,1,1,1,1,1,1,1,1,333,8,8,8,8,8,8,8,837,1,1,1,1,1,1,1,1,2,2,2,2,2,2,838,8,8,8,8,8,8,8,19,20,8,8,8,8,8,8,8,9,10,8,8,8,8,8,8,21,828,2,2,2,2,2,839,8,8,8,8,8,8,8,8,69,87,8,8,8,8,8,8,11,12,8,8,8,8,8,8,13,512,2,2,2,2,2,834,835,835,835,835,835,835,835,835,835,835,835,835,835,835,835,835,835,835,835,835,835,835,835,835,835,835,835,835,835,835,835,836,835,835,835,835,835,835,835,835,835,835,835,835,835,835,835,835,835,835,835,835,835,835,835,835,835,835,835,835,835,835,835
1,1,1,1,1,1,1,1,1,333,8,8,8,8,8,8,8,837,1,1,1,1,1,1,1,1,2,2,2,2,2,2,838,8,8,8,8,8,8,8,19,20,8,8,8,8,8,8,8,9,10,8,8,8,8,8,8,21,828,2,2,2,2,2,839,8,8,8,8,8,8,8,8,69,87,8,8,8,8,8,8,11,12,8,8,8,8,8,8,13,512,2,2,2,2,2,834,835,835,835,835,835,835,835,835,835,835,835,835,835,835,835,835,835,835,835,835,835,835,835,835,835,835,835,835,835,835,835,836,835,835,835,835,835,835,835,835,835,835,835,835,835,835,835,835,835,835,835,835,835,835,835,835,835,835,835,835,835,835,835
1,1,1,1,1,1,1,1,1,422,187,187,187,187,187,187,187,840,1,1,1,1,1,1,1,1,2,2,2,2,2,2,841,187,187,187,187,187,187,187,456,457,187,187,187,187,187,187,187,842,843,187,187,187,187,187,187,458,828,2,2,2,2,2,844,187,187,187,187,187,187,187,187,460,461,187,187,187,187,187,187,656,629,187,187,187,187,187,187,462,512,2,2,2,2,2,834,835,835,835,835,835,835,835,835,835,835,835,835,835,835,835,835,835,835,835,835,835,835,835,835,835,835,835,835,835,835,835,836,835,835,835,835,835,835,835,835,835,835,835,835,835,835,835,835,835,835,835,835,835,835,835,835,835,835,835,835,835,835,835
    </data>
  </layer>
</map>